assets/icons/my-question.svg

<svg width="32" height="32" viewBox="0 0 32 32" fill="none" xmlns="http://www.w3.org/2000/svg">
<rect width="32" height="32" rx="16" fill="white"/>
<path d="M26.6663 16.0002C26.6663 21.8912 21.8907 26.6668 15.9997 26.6668C10.1086 26.6668 5.33301 21.8912 5.33301 16.0002C5.33301 10.1091 10.1086 5.3335 15.9997 5.3335C21.8907 5.3335 26.6663 10.1091 26.6663 16.0002Z" fill="#FFB13C"/>
<path d="M16.0002 11.4667C15.3375 11.4667 14.8002 12.004 14.8002 12.6667C14.8002 13.1085 14.442 13.4667 14.0002 13.4667C13.5584 13.4667 13.2002 13.1085 13.2002 12.6667C13.2002 11.1203 14.4538 9.8667 16.0002 9.8667C17.5466 9.8667 18.8002 11.1203 18.8002 12.6667C18.8002 13.4249 18.4978 14.1141 18.0087 14.6176C17.9103 14.7189 17.8164 14.8127 17.7268 14.9022L17.7268 14.9022C17.4966 15.1322 17.2949 15.3337 17.118 15.5611C16.8843 15.8613 16.8002 16.0819 16.8002 16.2667V17.0667C16.8002 17.5085 16.442 17.8667 16.0002 17.8667C15.5584 17.8667 15.2002 17.5085 15.2002 17.0667V16.2667C15.2002 15.5678 15.5255 15.0021 15.8553 14.5784C16.0993 14.2649 16.406 13.9588 16.6549 13.7104L16.6549 13.7104C16.73 13.6355 16.7998 13.5658 16.861 13.5027C17.0718 13.2858 17.2002 12.9921 17.2002 12.6667C17.2002 12.004 16.6629 11.4667 16.0002 11.4667Z" fill="white"/>
<path d="M16.0002 21.3334C16.5893 21.3334 17.0669 20.8558 17.0669 20.2667C17.0669 19.6776 16.5893 19.2 16.0002 19.2C15.4111 19.2 14.9335 19.6776 14.9335 20.2667C14.9335 20.8558 15.4111 21.3334 16.0002 21.3334Z" fill="white"/>
</svg>

<svg xmlns="http://www.w3.org/2000/svg" width="32" height="32" fill="none" data-c="1"><rect width="32" height="32" fill="#fff" rx="16"/><path fill="#FFB13C" d="M26.666 16c0 5.891-4.775 10.667-10.666 10.667S5.333 21.89 5.333 16c0-5.89 4.776-10.666 10.667-10.666 5.89 0 10.666 4.775 10.666 10.666"/><path fill="#fff" d="M16 11.467a1.2 1.2 0 0 0-1.2 1.2.8.8 0 0 1-1.6 0 2.8 2.8 0 1 1 4.809 1.95q-.149.152-.282.285c-.23.23-.432.432-.609.66-.234.3-.318.52-.318.705v.8a.8.8 0 0 1-1.6 0v-.8c0-.7.325-1.265.655-1.689.244-.313.551-.62.8-.868q.113-.113.206-.207a1.2 1.2 0 0 0-.86-2.036M16 21.333a1.067 1.067 0 1 0 0-2.133 1.067 1.067 0 0 0 0 2.133"/></svg>
